Sources/FrostedUI/Resources/Icons.xcassets/telephone24.imageset/telephone-24.svg

<svg width="24" height="24" viewBox="0 0 24 24" fill="none" xmlns="http://www.w3.org/2000/svg" data-fui-icon="true">
  <path
    d="M14.5 1C15.6046 1 16.5 1.89543 16.5 3V6.22559C16.4998 7.1787 15.8272 7.99946 14.8926 8.18652L11.793 8.80566C11.6138 9.83833 11.5 10.919 11.5 12C11.5 13.0807 11.6139 14.161 11.793 15.1934L14.8926 15.8135C15.8272 16.0005 16.4998 16.8213 16.5 17.7744V21C16.5 22.1046 15.6046 23 14.5 23H10.9766C10.1366 23 9.28149 22.6065 8.82227 21.7998C7.97187 20.3059 6.5 16.9964 6.5 12C6.5 7.00357 7.97187 3.69408 8.82227 2.2002C9.28149 1.3935 10.1366 1 10.9766 1H14.5ZM10.9766 2.5C10.5846 2.5 10.2762 2.67842 10.126 2.94238C9.37978 4.25325 8 7.30928 8 12C8 16.6907 9.37978 19.7468 10.126 21.0576C10.2762 21.3216 10.5846 21.5 10.9766 21.5H14.5C14.7761 21.5 15 21.2761 15 21V17.7744C14.9998 17.5362 14.8313 17.3309 14.5977 17.2842L11 16.5645C10.7021 16.5049 10.4696 16.2718 10.4111 15.9736L10.3232 15.5C10.1274 14.3851 10 13.2001 10 12C10 10.6284 10.1662 9.27637 10.4111 8.02637C10.4623 7.76549 10.6467 7.5545 10.8916 7.46582L11 7.43555L14.5977 6.71582C14.8313 6.6691 14.9998 6.46378 15 6.22559V3C15 2.72386 14.7761 2.5 14.5 2.5H10.9766Z"
    fill="currentColor"
  />
</svg>

<svg xmlns="http://www.w3.org/2000/svg" width="24" height="24" fill="none" data-fui-icon="true" viewBox="0 0 24 24"><path fill="currentColor" d="M14.5 1a2 2 0 0 1 2 2v3.226a2 2 0 0 1-1.607 1.96l-3.1.62A19 19 0 0 0 11.5 12c0 1.08.114 2.161.293 3.193l3.1.62a2 2 0 0 1 1.607 1.961V21a2 2 0 0 1-2 2h-3.523c-.84 0-1.696-.393-2.155-1.2C7.972 20.306 6.5 16.996 6.5 12s1.472-8.306 2.322-9.8c.46-.807 1.315-1.2 2.155-1.2zm-3.523 1.5c-.392 0-.7.178-.851.442C9.38 4.253 8 7.31 8 12s1.38 7.747 2.126 9.058c.15.264.459.442.85.442H14.5a.5.5 0 0 0 .5-.5v-3.226a.5.5 0 0 0-.402-.49L11 16.564a.75.75 0 0 1-.589-.59l-.088-.474A20.3 20.3 0 0 1 10 12c0-1.372.166-2.724.411-3.974a.75.75 0 0 1 .48-.56l.109-.03 3.598-.72a.5.5 0 0 0 .402-.49V3a.5.5 0 0 0-.5-.5z"/></svg>
